X: 43034
T: Wily Old Bachelor, The
R: hornpipe
M: 4/4
K: Dmajor
AG|FAde fdAF|~e3 f gecA|(3.F.G.A df ecAc|edcB A2 GE|
FAde fdAF|~e3 f gecA|(3.F.G.A dA Bgec|d2 dc d2:|
(3.e.f.g|afdA (3.F.G.A df|gecA EAce|afdA (3.F.G.A df|edcB A2 fg|
afdA (3.F.G.A df|gecA EAce|~f2 df e2 ce|d2 dc d2:|

